source/images/icon-domains.svg

<?xml version="1.0" encoding="UTF-8"?>
<svg width="145px" height="71px" viewBox="0 0 145 71" version="1.1" xmlns="http://www.w3.org/2000/svg" xmlns:xlink="http://www.w3.org/1999/xlink">
    <!-- Generator: Sketch 41.2 (35397) - https://www.sketchapp.com -->
    <title>icon-domains</title>
    <desc>Created with Sketch.</desc>
    <defs></defs>
    <g id="Updated-HOME-+-icons" stroke="none" stroke-width="1" fill="none" fill-rule="evenodd">
        <g id="Artboard" transform="translate(-117.000000, -898.000000)">
            <g id="icon-domains" transform="translate(118.000000, 899.000000)">
                <path d="M40.2336,4.5848 L110.7456,4.5848 L40.2336,4.5848 Z" id="Stroke-1" stroke="#0093C9" stroke-width="3.808"></path>
                <path d="M108.7995,24.5012 L108.7995,4.5852" id="Stroke-3" stroke="#0093C9" stroke-width="3.808"></path>
                <path d="M88.4608,50.394 C88.4608,50.203 88.4948,50.022 88.5658,49.851 C88.6358,49.68 88.7348,49.531 88.8598,49.406 C88.9858,49.28 89.1348,49.182 89.3048,49.111 C89.4768,49.041 89.6578,49.006 89.8488,49.006 C90.0398,49.006 90.2208,49.041 90.3918,49.111 C90.5628,49.182 90.7108,49.28 90.8378,49.406 C90.9628,49.531 91.0608,49.68 91.1318,49.851 C91.2018,50.022 91.2368,50.203 91.2368,50.394 C91.2368,50.586 91.2018,50.766 91.1318,50.937 C91.0608,51.109 90.9628,51.257 90.8378,51.383 C90.7108,51.508 90.5628,51.607 90.3918,51.677 C90.2208,51.747 90.0398,51.783 89.8488,51.783 C89.6578,51.783 89.4768,51.747 89.3048,51.677 C89.1348,51.607 88.9858,51.508 88.8598,51.383 C88.7348,51.257 88.6358,51.109 88.5658,50.937 C88.4948,50.766 88.4608,50.586 88.4608,50.394" id="Fill-5" fill="#0093C9"></path>
                <path d="M100.1552,43.7846 C99.9242,43.5036 99.6392,43.2866 99.3032,43.1356 C98.9652,42.9846 98.5762,42.9096 98.1332,42.9096 C97.6902,42.9096 97.2812,42.9946 96.9042,43.1666 C96.5252,43.3376 96.1992,43.5766 95.9222,43.8826 C95.6462,44.1896 95.4302,44.5546 95.2742,44.9766 C95.1182,45.3996 95.0402,45.8576 95.0402,46.3496 C95.0402,46.8536 95.1182,47.3136 95.2742,47.7306 C95.4302,48.1486 95.6442,48.5106 95.9152,48.8176 C96.1872,49.1236 96.5052,49.3636 96.8732,49.5336 C97.2402,49.7056 97.6352,49.7906 98.0582,49.7906 C98.5402,49.7906 98.9682,49.6896 99.3402,49.4886 C99.7122,49.2876 100.0192,49.0056 100.2602,48.6436 L102.2232,50.1076 C101.7702,50.7416 101.1962,51.2086 100.5022,51.5106 C99.8082,51.8126 99.0942,51.9636 98.3592,51.9636 C97.5242,51.9636 96.7552,51.8326 96.0512,51.5716 C95.3472,51.3096 94.7382,50.9356 94.2252,50.4466 C93.7122,49.9596 93.3112,49.3686 93.0252,48.6736 C92.7392,47.9796 92.5952,47.2056 92.5952,46.3496 C92.5952,45.4946 92.7392,44.7206 93.0252,44.0266 C93.3112,43.3316 93.7122,42.7416 94.2252,42.2536 C94.7382,41.7656 95.3472,41.3906 96.0512,41.1286 C96.7552,40.8676 97.5242,40.7366 98.3592,40.7366 C98.6612,40.7366 98.9752,40.7646 99.3032,40.8196 C99.6292,40.8756 99.9512,40.9626 100.2692,41.0836 C100.5852,41.2046 100.8892,41.3656 101.1812,41.5666 C101.4732,41.7686 101.7342,42.0146 101.9662,42.3056 L100.1552,43.7846 Z" id="Fill-7" fill="#0093C9"></path>
                <path d="M105.3761,46.3499 C105.3761,46.8529 105.4541,47.3129 105.6101,47.7309 C105.7661,48.1489 105.9891,48.5099 106.2811,48.8169 C106.5731,49.1239 106.9231,49.3629 107.3301,49.5339 C107.7381,49.7049 108.1931,49.7909 108.6951,49.7909 C109.1991,49.7909 109.6541,49.7049 110.0621,49.5339 C110.4691,49.3629 110.8181,49.1239 111.1101,48.8169 C111.4021,48.5099 111.6261,48.1489 111.7821,47.7309 C111.9381,47.3129 112.0161,46.8529 112.0161,46.3499 C112.0161,45.8569 111.9381,45.3989 111.7821,44.9769 C111.6261,44.5539 111.4021,44.1899 111.1101,43.8829 C110.8181,43.5759 110.4691,43.3369 110.0621,43.1659 C109.6541,42.9949 109.1991,42.9089 108.6951,42.9089 C108.1931,42.9089 107.7381,42.9949 107.3301,43.1659 C106.9231,43.3369 106.5731,43.5759 106.2811,43.8829 C105.9891,44.1899 105.7661,44.5539 105.6101,44.9769 C105.4541,45.3989 105.3761,45.8569 105.3761,46.3499 M102.9311,46.3499 C102.9311,45.4949 103.0751,44.7209 103.3611,44.0259 C103.6481,43.3319 104.0481,42.7409 104.5611,42.2529 C105.0741,41.7659 105.6831,41.3909 106.3881,41.1289 C107.0911,40.8679 107.8601,40.7369 108.6951,40.7369 C109.5311,40.7369 110.3001,40.8679 111.0041,41.1289 C111.7091,41.3909 112.3171,41.7659 112.8311,42.2529 C113.3441,42.7409 113.7431,43.3319 114.0301,44.0259 C114.3171,44.7209 114.4611,45.4949 114.4611,46.3499 C114.4611,47.2049 114.3171,47.9799 114.0301,48.6739 C113.7431,49.3679 113.3441,49.9589 112.8311,50.4469 C112.3171,50.9349 111.7091,51.3099 111.0041,51.5709 C110.3001,51.8329 109.5311,51.9639 108.6951,51.9639 C107.8601,51.9639 107.0911,51.8329 106.3881,51.5709 C105.6831,51.3099 105.0741,50.9349 104.5611,50.4469 C104.0481,49.9589 103.6481,49.3679 103.3611,48.6739 C103.0751,47.9799 102.9311,47.2049 102.9311,46.3499" id="Fill-9" fill="#0093C9"></path>
                <polygon id="Fill-11" fill="#0093C9" points="116.0589 41.0085 119.6199 41.0085 122.0799 47.9795 122.1099 47.9795 124.5849 41.0085 128.1299 41.0085 128.1299 51.6915 125.7769 51.6915 125.7769 43.4985 125.7469 43.4985 122.9399 51.6915 121.1439 51.6915 118.4429 43.4985 118.4119 43.4985 118.4119 51.6915 116.0589 51.6915"></polygon>
                <polygon id="Fill-13" fill="#0093C9" points="19.7249 2.3592 24.4139 13.3532 18.4459 13.3532 20.4199 18.1912 32.5139 18.1912"></polygon>
                <polygon id="Fill-15" fill="#0093C9" points="24.4288 28.2414 28.3788 37.5464 21.3468 37.5464 34.3478 53.3814 29.6598 42.3854 35.6268 42.3854 33.6298 37.5464 30.8618 37.5464 26.9088 28.2414"></polygon>
                <path d="M37.2364,23.0329 C37.3834,23.0329 37.7244,22.8509 37.7244,21.1689 C37.7244,19.4899 37.3834,19.3079 37.2364,19.3079 L28.9064,19.3079 L30.4874,23.0329 L37.2364,23.0329 Z" id="Fill-17" fill="#0093C9"></path>
                <path d="M32.3831,27.4995 L37.9801,27.4985 C38.1281,27.4985 38.4691,27.3165 38.4691,25.6355 C38.4691,23.9555 38.1281,23.7735 37.9801,23.7735 L30.8021,23.7745 L32.3831,27.4995 Z" id="Fill-19" fill="#0093C9"></path>
                <path d="M37.2364,32.708 L29.7094,32.708 L31.2904,36.432 L37.2364,36.432 C37.3834,36.432 37.7244,36.251 37.7244,34.571 C37.7244,32.89 37.3834,32.708 37.2364,32.708" id="Fill-21" fill="#FEFEFE"></path>
                <path d="M37.98,28.2414 L27.814,28.2414 L29.395,31.9664 L37.98,31.9664 C38.128,31.9664 38.469,31.7834 38.469,30.1044 C38.469,28.4234 38.128,28.2414 37.98,28.2414" id="Fill-23" fill="#FEFEFE"></path>
                <path d="M37.2364,32.708 L29.7094,32.708 L31.2904,36.432 L37.2364,36.432 C37.3834,36.432 37.7244,36.251 37.7244,34.571 C37.7244,32.89 37.3834,32.708 37.2364,32.708" id="Fill-25" fill="#0093C9"></path>
                <path d="M37.98,28.2414 L27.814,28.2414 L29.395,31.9664 L37.98,31.9664 C38.128,31.9664 38.469,31.7834 38.469,30.1044 C38.469,28.4234 38.128,28.2414 37.98,28.2414" id="Fill-27" fill="#0093C9"></path>
                <path d="M26.5933,27.498 L24.6973,23.03 L25.6013,23.03 L27.4983,27.498 L31.5243,27.5 L28.0463,19.308 L19.3653,19.308 C18.6963,19.308 18.3293,19.308 18.0283,20.278 C17.6663,21.434 17.6243,23.618 17.6243,27.869 C17.6243,32.12 17.6663,34.304 18.0283,35.461 C18.3293,36.43 18.6963,36.43 19.3653,36.43 L26.9813,36.431 L23.2083,27.497 L26.5933,27.498 Z" id="Fill-29" fill="#0093C9"></path>
                <path d="M79.344,64.4674 L138.245,64.4674 L138.245,28.2324 L79.344,28.2324 L79.344,64.4674 Z M83.03,19.5944 C84.378,19.5944 85.478,20.6834 85.478,22.0534 C85.478,23.4014 84.378,24.5014 83.03,24.5014 C81.671,24.5014 80.571,23.4014 80.571,22.0534 C80.571,20.6944 81.671,19.5944 83.03,19.5944 L83.03,19.5944 Z M90.393,19.5944 C91.743,19.5944 92.84,20.6834 92.84,22.0534 C92.84,23.4014 91.743,24.5014 90.393,24.5014 C89.034,24.5014 87.937,23.4014 87.937,22.0534 C87.937,20.6944 89.034,19.5944 90.393,19.5944 L90.393,19.5944 Z M138.245,15.9074 L79.343,15.9074 C76.634,15.9074 74.437,18.1044 74.437,20.8144 L74.437,64.4674 C74.437,67.1774 76.634,69.3854 79.343,69.3854 L138.245,69.3854 C140.954,69.3854 143.162,67.1774 143.162,64.4674 L143.162,20.8144 C143.162,18.1044 140.954,15.9074 138.245,15.9074 L138.245,15.9074 Z" id="Fill-31" fill="#0093C9"></path>
                <path d="M54.222,27.4983 C54.222,42.2573 42.257,54.2223 27.498,54.2223 C12.739,54.2223 0.775,42.2573 0.775,27.4983 C0.775,12.7393 12.739,0.7743 27.498,0.7743 C42.257,0.7743 54.222,12.7393 54.222,27.4983 Z" id="Stroke-33" stroke="#0093C9" stroke-width="3.549"></path>
            </g>
        </g>
    </g>
</svg>

<svg height="71" viewBox="0 0 145 71" width="145" xmlns="http://www.w3.org/2000/svg"><g fill="none" fill-rule="evenodd" transform="translate(1 1)"><path d="m40.2336 4.5848h70.512z" stroke="#0093c9" stroke-width="3.808"/><path d="m108.7995 24.5012v-19.916" stroke="#0093c9" stroke-width="3.808"/><g fill="#0093c9"><path d="m88.4608 50.394c0-.191.034-.372.105-.543.07-.171.169-.32.294-.445.126-.126.275-.224.445-.295.172-.07.353-.105.544-.105s.372.035.543.105c.171.071.319.169.446.295.125.125.223.274.294.445.07.171.105.352.105.543 0 .192-.035.372-.105.543-.071.172-.169.32-.294.446-.127.125-.275.224-.446.294s-.352.106-.543.106-.372-.036-.544-.106c-.17-.07-.319-.169-.445-.294-.125-.126-.224-.274-.294-.446-.071-.171-.105-.351-.105-.543"/><path d="m100.1552 43.7846c-.231-.281-.516-.498-.852-.649-.338-.151-.727-.226-1.17-.226s-.852.085-1.229.257c-.379.171-.705.41-.982.716-.276.307-.492.672-.648 1.094-.156.423-.234.881-.234 1.373 0 .504.078.964.234 1.381.156.418.37.78.641 1.087.272.306.59.546.958.716.367.172.762.257 1.185.257.482 0 .91-.101 1.282-.302s.679-.483.92-.845l1.963 1.464c-.453.634-1.027 1.101-1.721 1.403s-1.408.453-2.143.453c-.835 0-1.604-.131-2.308-.392-.704-.262-1.313-.636-1.826-1.125-.513-.487-.914-1.078-1.2-1.773-.286-.694-.43-1.468-.43-2.324 0-.855.144-1.629.43-2.323.286-.695.687-1.285 1.2-1.773s1.122-.863 1.826-1.125c.704-.261 1.473-.392 2.308-.392.302 0 .616.028.944.083.326.056.648.143.966.264.316.121.62.282.912.483.292.202.553.448.785.739z"/><path d="m105.3761 46.3499c0 .503.078.963.234 1.381s.379.779.671 1.086.642.546 1.049.717c.408.171.863.257 1.365.257.504 0 .959-.086 1.367-.257.407-.171.756-.41 1.048-.717s.516-.668.672-1.086.234-.878.234-1.381c0-.493-.078-.951-.234-1.373-.156-.423-.38-.787-.672-1.094s-.641-.546-1.048-.717c-.408-.171-.863-.257-1.367-.257-.502 0-.957.086-1.365.257-.407.171-.757.41-1.049.717s-.515.671-.671 1.094c-.156.422-.234.88-.234 1.373m-2.445 0c0-.855.144-1.629.43-2.324.287-.694.687-1.285 1.2-1.773.513-.487 1.122-.862 1.827-1.124.703-.261 1.472-.392 2.307-.392.836 0 1.605.131 2.309.392.705.262 1.313.637 1.827 1.124.513.488.912 1.079 1.199 1.773.287.695.431 1.469.431 2.324s-.144 1.63-.431 2.324-.686 1.285-1.199 1.773c-.514.488-1.122.863-1.827 1.124-.704.262-1.473.393-2.309.393-.835 0-1.604-.131-2.307-.393-.705-.261-1.314-.636-1.827-1.124s-.913-1.079-1.2-1.773c-.286-.694-.43-1.469-.43-2.324"/><path d="m116.0589 41.0085h3.561l2.46 6.971h.03l2.475-6.971h3.545v10.683h-2.353v-8.193h-.03l-2.807 8.193h-1.796l-2.701-8.193h-.031v8.193h-2.353z"/><path d="m19.7249 2.3592 4.689 10.994h-5.968l1.974 4.838h12.094z"/><path d="m24.4288 28.2414 3.95 9.305h-7.032l13.001 15.835-4.688-10.996h5.967l-1.997-4.839h-2.768l-3.953-9.305z"/><path d="m37.2364 23.0329c.147 0 .488-.182.488-1.864 0-1.679-.341-1.861-.488-1.861h-8.33l1.581 3.725z"/><path d="m32.3831 27.4995 5.597-.001c.148 0 .489-.182.489-1.863 0-1.68-.341-1.862-.489-1.862l-7.178.001z"/></g><path d="m37.2364 32.708h-7.527l1.581 3.724h5.946c.147 0 .488-.181.488-1.861 0-1.681-.341-1.863-.488-1.863" fill="#fefefe"/><path d="m37.98 28.2414h-10.166l1.581 3.725h8.585c.148 0 .489-.183.489-1.862 0-1.681-.341-1.863-.489-1.863" fill="#fefefe"/><g fill="#0093c9"><path d="m37.2364 32.708h-7.527l1.581 3.724h5.946c.147 0 .488-.181.488-1.861 0-1.681-.341-1.863-.488-1.863"/><path d="m37.98 28.2414h-10.166l1.581 3.725h8.585c.148 0 .489-.183.489-1.862 0-1.681-.341-1.863-.489-1.863"/><path d="m26.5933 27.498-1.896-4.468h.904l1.897 4.468 4.026.002-3.478-8.192h-8.681c-.669 0-1.036 0-1.337.97-.362 1.156-.404 3.34-.404 7.591s.042 6.435.404 7.592c.301.969.668.969 1.337.969l7.616.001-3.773-8.934z"/><path d="m79.344 64.4674h58.901v-36.235h-58.901zm3.686-44.873c1.348 0 2.448 1.089 2.448 2.459 0 1.348-1.1 2.448-2.448 2.448-1.359 0-2.459-1.1-2.459-2.448 0-1.359 1.1-2.459 2.459-2.459zm7.363 0c1.35 0 2.447 1.089 2.447 2.459 0 1.348-1.097 2.448-2.447 2.448-1.359 0-2.456-1.1-2.456-2.448 0-1.359 1.097-2.459 2.456-2.459zm47.852-3.687h-58.902c-2.709 0-4.906 2.197-4.906 4.907v43.653c0 2.71 2.197 4.918 4.906 4.918h58.902c2.709 0 4.917-2.208 4.917-4.918v-43.653c0-2.71-2.208-4.907-4.917-4.907z"/></g><path d="m54.222 27.4983c0 14.759-11.965 26.724-26.724 26.724s-26.723-11.965-26.723-26.724 11.964-26.724 26.723-26.724 26.724 11.965 26.724 26.724z" stroke="#0093c9" stroke-width="3.549"/></g></svg>
